docs/.gitbook/assets/icon-airplane-takeoff-16@light.svg

<svg width="32" height="32" viewBox="0 0 16 16" fill="none" xmlns="http://www.w3.org/2000/svg">
<rect x="0" y="0" width="16" height="16" fill="#fff"/>
<path fill-rule="evenodd" clip-rule="evenodd" d="M6.62521 1.20306C8.06163 0.710142 9.68424 1.13199 10.6553 2.28563L10.9159 2.59519L11.7711 2.30172C12.9879 1.88415 14.3783 2.46067 14.8488 3.67946C15.3286 4.92228 14.6315 6.24791 13.3972 6.67149L11.491 7.32558L10.4808 9.92716C10.4727 9.94788 10.4638 9.96824 10.4539 9.98817C10.1489 10.6049 9.60367 11.069 8.95105 11.2929L7.00906 11.9594C6.75816 12.0455 6.48044 11.9926 6.27869 11.8204C6.07694 11.6482 5.98117 11.3822 6.02681 11.1209L6.38365 9.0782L3.78364 9.97041C3.4023 10.1013 2.98573 9.90723 2.84053 9.53112L1.05033 4.89387C0.976917 4.70371 0.984068 4.49187 1.07013 4.30709C1.1562 4.12232 1.31377 3.98053 1.50657 3.91437L2.41331 3.60322C3.34069 3.28498 4.38481 3.48379 5.11578 4.1363L5.47928 4.46078L6.71177 4.03784L5.54569 2.6525C5.38641 2.46326 5.33067 2.20765 5.39671 1.96928C5.46276 1.7309 5.64209 1.54042 5.87605 1.46013L6.62521 1.20306ZM8.23301 3.51582L9.38646 3.12001C8.88725 2.6247 8.13816 2.4002 7.41281 2.54139L8.23301 3.51582ZM13.4494 4.21968C13.2908 3.80869 12.7697 3.54489 12.2579 3.72051L10.9165 4.18083L8.23367 5.10145L5.55083 6.02208C5.29431 6.11011 5.01026 6.0528 4.80795 5.8722L4.11688 5.25531C3.80083 4.97319 3.3277 4.8753 2.90017 5.02201L2.73021 5.08033L3.97981 8.31723L7.09747 7.24739C7.34837 7.1613 7.62608 7.21413 7.82783 7.38635C8.02958 7.55857 8.12536 7.82455 8.07971 8.08585L7.72288 10.1285L8.46419 9.87416C8.74997 9.77609 8.97181 9.58316 9.09629 9.34873L10.2189 6.45779C10.2989 6.25183 10.4656 6.0916 10.6746 6.01989L12.9103 5.2527C13.4046 5.08308 13.5988 4.60664 13.4494 4.21968ZM1 14.25C1 13.8357 1.33579 13.5 1.75 13.5H14.25C14.6642 13.5 15 13.8357 15 14.25C15 14.6642 14.6642 15 14.25 15H1.75C1.33579 15 1 14.6642 1 14.25Z" fill="#000"/>
</svg>

<svg xmlns="http://www.w3.org/2000/svg" width="32" height="32" fill="none" viewBox="0 0 16 16"><path fill="#fff" d="M0 0h16v16H0z"/><path fill="#000" fill-rule="evenodd" d="M6.625 1.203c1.437-.493 3.06-.071 4.03 1.083l.26.31.856-.294c1.217-.418 2.607.159 3.078 1.377.48 1.243-.217 2.569-1.452 2.992l-1.906.655-1.01 2.601-.027.061a2.62 2.62 0 0 1-1.503 1.305l-1.942.666a.75.75 0 0 1-.982-.838l.357-2.043-2.6.892a.75.75 0 0 1-.943-.439L1.05 4.894a.75.75 0 0 1 .456-.98l.906-.31a2.74 2.74 0 0 1 2.703.532l.363.325 1.233-.423-1.166-1.386a.75.75 0 0 1 .33-1.192zm1.608 2.313 1.153-.396a2.22 2.22 0 0 0-1.973-.579zm5.216.704c-.158-.411-.68-.675-1.191-.5l-1.341.46-2.683.921-2.683.921a.75.75 0 0 1-.743-.15l-.691-.617A1.24 1.24 0 0 0 2.9 5.022l-.17.058 1.25 3.237 3.117-1.07a.75.75 0 0 1 .983.839l-.357 2.043.741-.255a1.12 1.12 0 0 0 .632-.525l1.123-2.891a.75.75 0 0 1 .456-.438l2.235-.767c.495-.17.689-.646.54-1.033M1 14.25a.75.75 0 0 1 .75-.75h12.5a.75.75 0 1 1 0 1.5H1.75a.75.75 0 0 1-.75-.75" clip-rule="evenodd"/></svg>
